X: 82
T: Den bitte Hamborg
B:[[Notböcker/Melodier til gamle danske Almuedanse for Violin solo]]
O:Danmark
Z:Søren Bak Vestergaard
M: 2/4
L: 1/16
K: G
BDGB d2B2|BDGB d2B2|cAFA cAFA|GFGA B2G2|\
BDGB d2B2|BDGB d2B2|cAFA cAFA|G2G2G2 z2:|\
|:dcBd g2f2|ecAc e2d2|cAFA cAFA|GFGA B2G2|\
dcBd g2f2|ecAc e2d2|cAFA cAFA|G2G2G2 z2:|

